X:01
T:Nouvelle La Poule. ET.01, La
M:2/4
L:1/8
Q:1/4=100
S:Eliza Tennyson MS, Lincolnshire, 1822
R:Quadrille
O:England;Lincolnshire;Somersby
Z:vmp.R.Greig 2011 <http://www.village-music-project.org.uk>
K:F
{d/}c/>=B/|ca ag|{g/}f/e/f/g/ fc|.d.e.f.d|(c2A)c|!
“_B/ in ms”Bg/>^f/ gB|Af/>e/ fA|G/B/d/c/ B/A/G/F/|E/F/G/F/ C{d}c/>=B/|!
(ca) .a.g|f/e/f/g/ fc|.d.e.f.d|c2Ac|!
Bg/>^f/ gB|Af/>e/ fA|F/d/c/B/ A/G/F/E/|FA”bar line omitted in ms”F (A/B/)|!
{d/}c/=B/c/d/ cf| (fe) ef|{a/}g/^f/g/a/ gc’|b2 ab|!
af/>e/ fb|af/>e/ fg/a/|.b.a .g.f|e/f/g/e/ c{d/}c/>=B/|!
(ca) .a.g|f/e/f/g/ fc|.d.e.f.d|c2Ac|!
Bg/>^f/ gB|Af/>e/ fA|G/d/c/B/ “_qu’s in ms”A/G/F/E/|F3c|!
{f/}d/^c/d/e/ df|=c/=B/c/d/ cf|e/f/g/a/ bb|ac’f f/e/|!
df bd’|d’/c’/=b/c’/ _b/a/g/f/|g/a/b/g/ e/f/g/e/|f>a g/f/e/d/|!
(ca) .a.g|f/e/f/g/ fc|.d.e .f.d|c2Ac|!
Bg/>^f/ gB|A=f/>e/ fA|G/d/c/B/ A/G/F/E/|F2z|]!
(3A/=B/^c/|df fe|d/^c/d/e/ d/e/f/g/|a^g/a/ =g/f/e/d/|!
^c/d/e/c/ A “_triplet not marked in ms”(3A/=B/c/|df fe|db/a/ g/f/e/d/|^cA =Bc|”Da Capo”d2c2|]

